X:1
T:The Light from Calvary
T:The Light from Calvary
T:W. O. Justis
T:Stella May Thompson, 1917
T:Public Domain Courtesy of the Cyber Hymnal™
T:Public Domain Courtesy of the Cyber Hymnal™
C:W. O. Justis
Z:Public Domain
Z:Courtesy of the Cyber Hymnal™
%%score ( 1 2 ) ( 3 4 )
L:1/8
Q:1/4=88
M:4/4
K:D
V:1 treble 
V:2 treble 
V:3 bass 
V:4 bass 
V:1
 !fermata![DA]>[DA] | [DB][Fd][DA][DA] [DA]2 [DF][CE] | [B,D][B,D][B,D][CE] [DF]2 [CE][DF] | %3
w: 1.~Won- drous|light from Cal- va- ry, Ev- ery|wan- dering one may see, For ’tis|
w: 2.~Glor- ious|light from Cal- va- ry, Oh! how|pre- cious un- to me Since I|
w: 3.~Fade- less|light from Cal- va- ry, For the|mil- lions shin- ing free, Flash it|
 [EG][EG][EG][EG] [EG]2 [GB][GB] | [FA]6 !fermata![Fd]>[FB] | [Fd][Fd][Fd][Fd] [Fd]2 [GB][FA] | %6
w: kind- ly, bright- ly gleam- ing each|day; With the|eye of faith be- hold, And be|
w: saw its gen- tle beck- on- ing|gleam! I was|bow- ing ’neath a load On sin’s|
w: forth up- on the des- o- late|waste; Pre- cious|souls are sink- ing there, In the|
 [FA][FA][FA][FA] [FA]2 D[CE] | [DF][DF][DF][DA] [DF]2 [CE][CF] | D6 ||"^Refrain" [FA]>[FA] | %10
w: guid- ed to the fold, From its|bless- èd ref- uge nev- er to|stray.||
w: bleak and rug- ged road, When it|pierced the gloom in beau- ty su-|preme.|Won- drous|
w: depths of dark des- pair, Will you,|Chris- tian, to their res- cue then|haste?||
 [FA]4- [FA][FA][GB][Gd] | A6 [FA]>[FA] | [DF]4- [DF]D[DE][DE] | [CE]6 [DF][EG] | %14
w: ||||
w: light * from Cal- va-|ry, Thro’ each|day * my pi- lot|be! Safe- ly|
w: ||||
 [FA][FA]A[GA] [FA]2 [DF]D | [Fd][Fd][Ad][Ad] !fermata![Gd]2 [Gd][GB] | %16
w: ||
w: o’er the rug- ged heights, Thro’ the|dark and cheer- less nights, Lead me|
w: ||
 [EA][EA][FA][FA] A2 [CE][CF] | D6 |] %18
w: ||
w: home, O Cal- va- ry’s won- drous|light!|
w: ||
V:2
 x2 | x8 | x8 | x8 | x8 | x8 | x6 D x | x8 | D6 || x2 | x8 | (FFEE F2) x2 | x5 D x2 | x8 | %14
 x2 A x3 D x | x8 | x4 (EC) x2 | (D2 B,B, A,2) |] %18
V:3
 !fermata![D,F,]>[D,F,] | [D,G,][D,A,][D,F,][D,F,] [D,F,]2 [D,A,][A,,G,] | %2
w: ||
 [B,,F,][B,,F,][B,,F,][A,,A,] [D,A,]2 [G,A,][F,A,] | [E,B,][E,B,][E,B,][E,B,] [A,C]2 [A,,C][A,,C] | %4
w: ||
 [D,D]6 !fermata![D,A,]>[D,B,] | [D,A,][D,A,][D,A,][D,A,] [D,A,]2 [D,D][D,D] | %6
w: ||
 [D,D][D,D][D,D][D,D] [D,D]2 [F,A,][E,A,] | [D,A,][D,A,][D,A,][F,A,] A,2 [A,,G,][A,,A,] | %8
w: |* * * * from * *|
 [D,F,]6 || [D,D]>[D,D] | [D,D][D,D][D,D][D,D] [D,D]2 [D,D][D,B,] | %11
w: ||Cal- va- ry, won- drous light from|
 [D,D][D,D][A,,C][A,,C] [D,D]2 [D,D]>[D,D] | [D,A,][D,A,][D,A,][D,A,] [D,A,][F,A,][E,^G,][E,G,] | %13
w: Cal- va- ry, my pi- * *|* lot be, yes, thro’ each day my|
 [A,,A,][A,,A,][A,,A,][A,,A,] [A,,A,]2 [D,A,][D,A,] | [D,D][D,D][F,D][E,C] [D,D]2 [D,A,][D,F,] | %15
w: pi- lot be! won- * * *||
 [D,A,][D,A,][F,=C][F,C] !fermata![G,B,]2 [G,B,][G,D] | [A,C][A,C][F,C][D,D] (CA,)[A,,G,][A,,A,] | %17
w: ||
 F,2 G,G, F,2 |] %18
w: * drous light! *|
V:4
 x2 | x8 | x8 | x8 | x8 | x8 | x8 | x4 A,2 x2 | x6 || x2 | x8 | x8 | x8 | x8 | x8 | x8 | %16
 x4 A,,2 x2 | D,6 |] %18

